X:1
T:Zoia zentil che per secreta via
T:Adriaan Willaert
T:Zoia zentil che per secreta via
C:Adriaan Willaert
%%score [ 1 2 3 4 ]
L:1/8
Q:1/4=105
M:2/2
K:C
V:1 alto1 nm="Soprano" snm="S"
V:2 alto nm="Alto" snm="A"
V:3 tenor nm="Tenor" snm="T"
V:4 bass nm="Bass" snm="B"
V:1
 z8 |[K:G][K:treble] B8 | A4 A4 | G6 G2 | G2 G2 G2 E2 | G4 F2 B2 | A2 A2 A2 ^G2 | %7
w: |Zo-|ia zen-|til, che|per se- cre- ta|vi- a ten|vai di cor in|
 A2 !fermata!F2 z2 G2 | B2 c2 B2 A2 | B2 B2 z B2 B | A2 A2 A2 ^G2 | A2 A2 z2 G2 | A6 B2- | %13
w: co- re por-|tan- do l'al- le-|grez- ze, l'al- le-|grez- ze de l'a-|mo- re, col|to ve-|
 B2 c4 B2- | BA A4 ^G2 | A4 z2 G2 | A6 B2- | B2 c4 B2- | BA A4 ^G2 | A4 z2 F2 | G3 F G2 G2 | F8 | %22
w: * nir ce-|* * la- *|to tan-|to ben|_ m'hai por-|* * ta- *|to. Che|per le- grez- za|tan-|
 G4 z2 F2 | F2 F2 G2 G2 | G8 | F4 z2 A2 | B2 B2 B2 c2 | dcBA B4 | A4 z2 BB | B2 c2 A2 BB | %30
w: ta, el|me for- za che|can-|ta, el|me for- za che|can- * * * *|ta fa li|le li lon, fa li|
 c2 c2 B2 BB | c3 c c2 c2 | B2 z2 AA B2 | B2 c2 AA G2 | G2 E2 FFFF | G2 AA G3 G | G2 G2 F4 | %37
w: le li lon, fa li|le li la li|lon. fa li le|li lon, fa li le|li lon, fa li le li|lon, fa li le li|la li lon.|
 z2 F2 F4- | F4 F4 | z2 E2 E4- | E4 E2 E2 | F2 A2 G2 G2 | F4 z2 F2 | F2 A2 G2 G2 | F4 z2 F2 | %45
w: Be- a-|* to,|be- a-|* to, be-|a- to co- lui|son, cha|lo soßa- mor in|don, l'a-|
 F2 A2 G2 E2 | G4 F2 F2 | A2 A2 G2 A2 | A8 | B4 z4 | B8- | B4 z2 B2 | B2 c2 B2 d2 | c2 c2 c2 B2- | %54
w: mor ne bel ne|ca- ro, che|s'ha col so da-|na-|ro.|Pi,|_ pi|ch'el se pa- ga|man- choße da sti-|
 BA A4 ^G2 | A4 c4- | c4 c4 | z4 z2 B2 | d3 c B2 A2 | G2 G2 F2 E2- | E2 A4 ^G2 | A4 c4- | c4 c4 | %63
w: * * ma _|re, l'a-|* mor,|l'a-|mor do- na- to|non si po pa-|* ga- *|re, l'a-|* mor,|
 z4 z2 B2 | d3 c B2 A2 | G2 G2 F2 E2- | E2 A4 ^G2 | A8 |] %68
w: l'a-|mor do- na- to|non si po pa-|* ga- *|re.|
V:2
 z8 |[K:G][K:treble] z4 z2 E2 | E4 A,4 | B,4 C4 | B,2 C2 B,2 E2 | E2 D2 z2 G2 | E2 =F2 E2 E2 | %7
w: |Zo-|ia zen-|til, che|per se- cre- ta|vi- a ten|vai di cor in|
 C2 !fermata!D2 z2 B,2 | B,2 G2 G2 E2 | G4 F2 GG | E2 =F3 E E2- | E2 D2 E2 E2 | z2 E2 F2 G2 | %13
w: co- re por-|tan- do l'al- le-|grez- ze, l'al- le-|grez- ze _ de|_ l'a- mo- re,|col to ve-|
 G6 G2 | E4 E2 B,2 | C2 D2 E4- | E2 E2 F2 G2- | G2 G2 G2 G2 | E2 =F2 E4 | E4 z2 D2 | D3 D D2 E2 | %21
w: nir ce-|la- to tan-|to ben m'hai|_ por- ta- to,|_ tan- to ben|m'hai por- ta-|to. Che|per le- grez- za|
 A,8 | B,4 z2 A,2 | A,2 A,2 C2 C2 | B,8 | A,4 z2 F2 | G2 G2 G2 E2 | F4 G4 | F4 z2 GG | %29
w: tan-|ta, el|me for- za che|can-|ta, el|me for- za che|can- *|ta fa li|
 G2 E2 F2 GG | G2 A2 F2 GG | G3 G A2 GG | G3 G F2 z2 | GG E2 F2 B,2 | B,B, C2 A,2 A,2 | %35
w: le li lon, fa li|le li lon, fa li|le li la fa li|le li lon,|fa li le li lon,|fa li le li lon,|
 CCCC C2 CC | B,2 B,2 A,4 | z2 D2 D4- | D4 D4 | z2 C2 C4- | C4 C2 C2 | D2 D2 E2 E2 | A,4 z2 D2 | %43
w: fa li le li lon, fa li|le li lon,|Be- a-|* to,|be- a-|* to, be-|a- to co- lui|son, cha|
 D2 D2 E2 A,2 | A,4 z2 D2 | D2 D2 E2 A,2 | B,4 A,2 D2 | C2 D2 E2 E2 | F8 | G4 z4 | D8- | D4 z2 D2 | %52
w: lo soßa- mor in|don, l'a-|mor ne bel ne|ca- ro, che|s'ha col so da-|na-|ro.|Pi,|_ pi|
 E2 E2 D2 A2 | A2 A2 G3 F | E2 =F2 E4 | E4 z4 | E8 | E4 z2 D2 | A3 G G2 E2 | E2 E2 A,B,CD | %60
w: ch'el se pa- ga|man- choße da _|_ sti- ma|re,|l'a-|mor, l'a-|mor do- na- to|non si po _ _ _|
 EA, =F2 E4 | E4 z4 | E8 | E4 z2 D2 | A3 G G2 E2 | E2 E2 A,B,CD | EA, =F2 E4 | E8 |] %68
w: _ _ pa- ga-|re,|l'a-|mor, l'a-|mor do- na- to|non si po _ _ _|_ _ pa- ga-|re.|
V:3
 z8 |[K:G][K:treble-8] z4 B4 | c4 d4 | e6 e2 | d2 e2 d2 c2 | B3 c d2 e2 | c2 d2 c2 B2 | %7
w: |Zo-|ia zen-|til, che|per se- cre- ta|vi- * a ten|vai di cor in|
 A2 !fermata!A2 z2 e2 | d2 e2 d2 c2 | B3 c d2 e2 | c2 d2 c2 B2 | A2 A2 z2 B2 | c4 d4 | e4 d4 | %14
w: co- re por-|tan- do l'al- le-|grez- ze, l'al- le-|grez- ze de l'a-|mo- re, col|to ve-|nir ce-|
 c4 B4 | A4 z2 B2 | c4 d4 | e4 d4 | c4 B4 | A4 z2 A2 | B3 A B2 c2 | d8 | d4 z2 d2 | d2 d2 e2 e2 | %24
w: la- *|to tan-|to ben|m'hai por-|ta- *|to. Che|per le- grez- za|tan-|ta, el|me for- za che|
 d8 | d4 z2 d2 | d2 d2 e2 e2 | d8 | d4 z2 dd | e2 e2 d2 dd | e2 e2 d2 dd | e3 e e2 e2 | d4 z2 dd | %33
w: can-|ta, el|me for- za che|can-|ta fa li|le li lon, fa li|le li lon, fa li|le li la li|lon, fa li|
 e2 e2 d2 dd | e2 e2 d2 dd | e3 e e2 e2 | d4 z2 A2 | A8 | A4 z2 A2 | A8 | A4 z2 A2 | A2 A2 B2 ^c2 | %42
w: le li lon, fa li|le li lon, fa li|le li la li|lon. Be-|a-|to, be-|a-|to, be-|a- to co- lui|
 d4 z2 A2 | A2 A2 B2 ^c2 | d4 z2 A2 | A2 A2 B2 ^c2 | d4 d2 A2 | A2 A2 B2 ^c2 | d8 | d4 z4 | g8- | %51
w: son, cha|lo soßa- mor in|don, l'a-|mor ne bel ne|ca- ro, che|s'ha col so da-|na-|ro.|Pi,|
 g4 z2 g2 | g2 g2 g2 f2 | e6 d2 | c2 d2 B4 | A4 z4 | g8 | g4 z2 g2 | f3 e d2 c2 | B3 c d2 e2 | %60
w: _ pi|ch'el se pa- ga|man- choße|da sti- ma|re,|l'a-|mor, l'a-|mor do- na- to|non _ _ si|
 c2 d2 B4 | A4 z4 | g8 | g4 z2 g2 | f3 e d2 c2 | B3 c d2 e2 | c2 d2 B4 | A8 |] %68
w: po pa- ga-|re,|l'a-|mor, l'a-|mor do- na- to|non _ _ si|po pa- ga-|re.|
V:4
 z8 |[K:G] z4 E,4 | A,4 =F,4 | E,2 E,2 C,D,E,F, | G,2 C,2 G,2 A,2 | E,F,G,A, B,2 E,2 | %6
w: |Zo-|ia zen-|til, che per _ _ _|_ se- cre- ta|vi- * * * a ten|
 A,2 D,2 E,2 E,2 | =F,2 !fermata!D,2 z2 E,2 | G,2 C,2 G,2 A,2 | E,F,G,A, B,2 E,E, | %10
w: vai di cor in|co- re por-|tan- do l'al- le-|grez- * * * ze, l'al- le-|
 A,2 D,2 E,2 E,2 | =F,4 E,4 | z2 A,2 D,2 G,2 | E,2 C,2 G,4 | A,4 E,4 | z2 =F,2 E,2 E,2 | %16
w: grez- ze de l'a-|mo- re,|col to ve-|nir ce- la-|* to|tan- to ben|
 A,4 D,2 G,F, | E,D, C,2 G,4 | A,4 E,4 | A,,4 z2 D,2 | G,3 D, G,2 E,2 | D,8 | G,4 z2 D,2 | %23
w: m'hai por- ta- *|||to. Che|per le- grez- za|tan-|ta, el|
 D,2 D,2 C,2 C,2 | G,8 | D,4 z2 D,2 | G,2 G,2 E,2 A,2 | D,4 G,4 | D,4 z2 G,G, | E,2 A,2 D,2 G,G, | %30
w: me for- za che|can-|ta, el|me for- za che|can- *|ta fa li|le li lon, fa li|
 C2 A,2 B,2 G,G, | C3 C A,2 C2 | G,2 G,G, D,2 G,2 | E,2 A,A, D,2 G,2 | E,2 A,A, D,3 D, | %35
w: le li lon, fa li|le li la li|lon, fa li le li|lon, fa _ li le|li fa li le li|
 C,2 A,,2 C,2 C,C, | G,,2 G,,2 D,2 D,2 | D,8 | D,4 z2 D,2 | A,,8 | A,,4 z2 A,,2 | %41
w: la li lon. fa li|la li lon. Be-|a-|to, be-|a-|to, be-|
 D,2 =F,2 E,2 E,2 | D,4 z2 D,2 | D,2 =F,2 E,2 E,2 | D,4 z2 D,2 | D,2 =F,2 E,2 A,2 | G,4 D,2 D,2 | %47
w: a- to co- lui|son, cha|lo soßa- mor in|don, l'a-|mor ne bel ne|ca- ro, che|
 =F,2 F,2 E,2 A,2 | D,8 | G,4 z4 | G,8- | G,4 z2 G,2 | E,2 C,2 G,2 D,2 | A,3 B, C2 G,2 | %54
w: s'ha col so da-|na-|ro.|Pi,|_ pi|ch'el se pa- ga|man- * * choße|
 A,2 D,2 E,4 | A,,8 | z4 C,4- | C,4 G,2 G,2 | D,3 E, G,2 A,2 | E,4 D,2 A,2- | A,2 D,2 E,4 | A,,8 | %62
w: da sti- ma|re,|l'a-|* mor, l'a-|mor do- na- to|non si po|_ pa- ga-|re,|
 z4 C,4- | C,4 G,2 G,2 | D,3 E, G,2 A,2 | E,4 D,2 A,2- | A,2 D,2 E,4 | A,,8 |] %68
w: l'a-|* mor, l'a-|mor do- na- to|non si po|_ pa- ga-|re.|

